icon-themes/breeze_svg/cmd/32/radiobutton.svg

<svg viewBox="0 0 32 32" xmlns="http://www.w3.org/2000/svg"><path d="m16 4a12 12 0 0 0 -12 12 12 12 0 0 0 12 12 12 12 0 0 0 12-12 12 12 0 0 0 -12-12zm0 1a11 11 0 0 1 11 11 11 11 0 0 1 -11 11 11 11 0 0 1 -11-11 11 11 0 0 1 11-11zm0 1a10 10 0 0 0 -10 10 10 10 0 0 0 10 10 10 10 0 0 0 10-10 10 10 0 0 0 -10-10z" fill="#4d4d4d"/></svg>

<svg xmlns="http://www.w3.org/2000/svg" viewBox="0 0 32 32">
 <path 
     style="fill:#4d4d4d" 
     d="M 16 4 A 12 12 0 0 0 4 16 A 12 12 0 0 0 16 28 A 12 12 0 0 0 28 16 A 12 12 0 0 0 16 4 z M 16 5 A 11 11 0 0 1 27 16 A 11 11 0 0 1 16 27 A 11 11 0 0 1 5 16 A 11 11 0 0 1 16 5 z M 16 6 A 10 10 0 0 0 6 16 A 10 10 0 0 0 16 26 A 10 10 0 0 0 26 16 A 10 10 0 0 0 16 6 z "
     />
</svg>
